X:1
T:Misericordias Domini
T:Orazio Vecchi Motecta, 1590 
T:Original perfect 4th higher
T:ed. Jeffrey Quick
T:Misericordias Domini
T:In omni tempore
T:© CPDL
T:© CPDL
T:© CPDL
T:© CPDL
T:© CPDL
C:Orazio Vecchi
Z:© CPDL
%%score [ 1 2 3 4 ]
L:1/8
Q:1/2=80
M:4/4
K:G
V:1 treble nm="Cantus" snm="C"
V:2 treble-8 nm="Altus" snm="A"
V:3 treble-8 nm="Tenor" snm="T"
V:4 bass nm="Bassus" snm="B"
V:1
 E8 A4 A4 | c12 B4 | B4 d6 c2 B2 A2 | B4 A2 G2 F6 G2 | A2 E2 A8 ^G4 | A16 | z16 | E8 A4 A4 | %8
w: Mi- se- ri-|cor- di-|as Do- * * *||* * * mi-|ni,||mi- se- ri-|
 c8 B4 B4 | A2 B2 c6 B2 B4- | B4 A4 B8 | z16 | B8 e4 e4 | d8 B4 c4- | c4 B8 A4 | B8 z4 B4 | %16
w: cor- di- as|Do- * * * *|* mi- ni,||mi- se- ri-|cor- di- as|_ Do- mi-|ni, mi-|
 e4 e4 d6 d2 | c4 B8 A2 G2 | F2 G2 A8 ^G4 | A4 z2 B2 c2 A3 ^G/F/ G2 | A2 =F2 E4 E4 z2 e2 | %21
w: se- ri- cor- di-|as Do- * *|* * * mi-|ni, in ae- ter- * * *|num can- ta- bo, in|
 c2 d4 e2 A4 A3 G | F2 G4 F2 G8 | z4 z2 B2 c2 A4 ^G2 | A2 c4 B2 A3 G F4 | E8 z4 z2 B2 | %26
w: ae- ter- num can- ta- *|* * * bo,|in ae- ter- num|can- ta- * * * *|bo, in|
 c2 A4 ^G2 A4 z2 d2 | e2 c4 B2 c4 d4 | c4 z4 z4 z2 d2 | e2 c4 B2 c4 B4- | B2 A2 A6 ^GF G4 | A8 z8 | %32
w: ae- ter- * num in|ae- ter- num can- ta-|bo, in|ae- ter- * num can-|* * ta- * * *|bo,|
 z16 | z16 | z16 | z16 | B8 e4 e4 | d8 B4 c4- | c4 B8 A4 | B8 z4 B4 | e4 e4 d8 | c4 B8 A4- | %42
w: ||||Mi- se- ri-|cor- di- as|_ Do- mi-|ni, mi-|se- ri- cor-|di- as Do-|
 A4 ^G4 A4 z2 B2 | c2 A3 ^G/F/ G2 A2 =F2 E4 | E4 z2 e2 c2 d4 e2 | A4 A3 G F2 G4 F2 | G8 z4 z2 B2 | %47
w: * mi- ni, in|ae- ter- * * * num can- ta-|bo, in ae- ter- num|can- ta- * * * *|bo, in|
 c2 A4 ^G2 A2 c4 B2 | A3 G F4 E8 | z4 z2 B2 c2 A4 ^G2 | A4 z2 d2 e2 c4 B2 | c4 d4 c4 z4 | %52
w: ae- ter- num can- ta- *|* * * bo,|in ae- ter- *|num in ae- ter- num|can- ta- bo,|
 z4 z2 d2 e2 c4 B2 | c4 B6 A2 A4- | A2 ^GF G4 A8- | A16- | A16- | !fermata!A16 |] %58
w: in ae- ter- num|can- ta- * *|* * * * bo.|_|||
V:2
 z16 | A8 e4 e4 | g6 g2 f4 g4- | g2 f2 e8 ^d4 | e8 z4 e4 | c4 A4 A8 | B4 ^c4 d6 A2 | B8 z4 A4 | %8
w: |Mi- se- ri-|cor- di- as Do-|* * * mi-|ni, (mi-|se- ri- cor-|di- as Do- mi-|ni) mi-|
 e4 e4 g6 g2 | f4 e2 f2 g2 e2 g2 f2 | e2 d2 c4 B4 e4 | z4 B4 e4 e4 | d4 B8 A4 | B4 f4 g8 | %14
w: se- ri- cor- di-|as Do- * * * * *|* * * mi- ni,|(mi- se- ri-|cor- di- as|Do- mi- ni)|
 z4 B4 e4 e4 | d6 c2 B4 B4 | E8 z4 B4 | e4 e4 d8 | A4 e4 e8- | e4 e4 e4 z2 B2 | c2 A4 ^G2 A4 B4 | %21
w: mi- se- ri-|cor- * * di-|as mi-|se- ri- cor-|di- as Do-|* mi- ni, in|ae- ter- num can- ta-|
 A4 z2 e2 =f2 d3 ^c/B/ c2 | d2 B2 A4 G4 z2 d2 | ABcd e4 e4 z2 e2- | e2 e2 f2 g2 f2 e4 ^d2 | %25
w: bo, (in- ae- ter- * * *|num can- ta- bo)- can-|ta- * * * * bo, in|_ ae- ter- * num can- ta-|
 e4 z2 B2 c2 A4 ^G2 | A4 B4 A4 d4 | g4 g2 d2 e2 c4 B2 | c4 z2 c2 d2 c4 B2 | c2 e2 f2 g2 e6 d2 | %30
w: bo, (in- ae- ter- num|can- ta- bo)- can-|ta- bo, in ae- ter- *|num in ae- ter- *|num (in- ae- ter- bo)- can-|
 =f8 e8 | z4 A4 e4 e4 | g6 f2 e2 d2 c4 | B4 e4 =f4 e4- | e4 c4 B8 | z4 B4 e4 e4 | d4 B8 A4 | %37
w: ta- bo,|Mi- se- ri-|cor- * * * *|di- as Do- *|* mi- ni,|mi- se- ri-|cor- di- as|
 B4 f4 g8 | z4 B4 e4 e4 | d8 c4 B4 | z4 g8 f4 | e4 g6 g2 =f4 | e12 e4 | e4 z2 B2 c2 A4 ^G2 | %44
w: Do- mi- ni,|mi- se- ri-|cor- di- as|(mi- se-|ri- cor- di- as|Do- mi-|ni, in ae- ter- num|
 A4 B4 A4 z2 e2 | =f2 d3 ^c/B/ c2 d2 B2 A4 | G4 z2 d2 ABcd e4 | e4 z2 e4 e2 f2 g2 | %48
w: can- ta- bo, in|ae- ter- * * * num can- ta-|bo, can- ta- * * * *|bo, in ae- ter- num|
 f2 e4 ^d2 e4 z2 B2 | c2 A4 ^G2 A4 B4 | A4 d4 g4 g2 d2 | e2 c4 B2 c4 z2 c2 | d2 c4 B2 c2 e2 f2 g2 | %53
w: can- ta- * bo, (in-|ae- ter- num can- ta-|bo)- can- ta- bo, in|ae- ter- * num (in-|ae- ter- * num)- in ae- ter-|
 e6 d2 =f8 | e4 e8 =f4 | d4 e4 =f4 f4- | f4 e2 d2 =f8 | !fermata!e16 |] %58
w: num can- ta-|bo, in ae-|ter- num can- ta-||bo.|
V:3
 z16 | z16 | z16 | E8 A4 B4 | c12 B4 | A4 c8 B2 A2 | G2 F2 G2 A2 B2 A2 A4- | A4 G4 =F6 F2 | E16 | %9
w: |||Mi- se- ri-|cor- di-|as Do- * *||* * * mi-|ni,|
 z8 E8 | A4 A4 ^G6 A2 | B2 c2 d4 G4 A4 | F6 F2 E8 | z4 B4 e4 e4 | d8 c8 | B4 F4 G8- | G4 c4 B6 B2 | %17
w: mi-|se- ri- cor- *|* * * di- as|Do- mi- ni,|mi- se- ri-|cor- di-|as mi- se-|* ri- cor- di-|
 G2 F2 G2 A2 B4 d4- | d4 c4 B4 z2 B2 | c2 A4 ^G2 c4 B4 | A4 z2 B2 c2 A4 ^G2 | A4 A8 A4 | %22
w: as _ _ _ _ Do-|* mi- ni, in|ae- ter- num can- ta-|bo, (in- ae- ter- num|can- ta- bo)-|
 z4 z2 A2 B2 E4 G2 | =F4 E4 A4 z2 B2 | c2 A4 G2 A4 B3 A | G2 A2 E2 e4 dc B4 | e4 z2 e2 c2 d4 B2 | %27
w: in ae- ter- num|can- ta- bo, (in-|ae- ter- num can- ta- *|* * bo)- can- * * ta-|bo, in ae- ter- num|
 c4 d4 c4 z4 | z2 c2 d2 e2 A2 A2 d4 | G2 c2 d4 c4 G2 B2 | d6 c2 B8 | ^c8 z8 | z8 E8 | E4 B4 c6 B2 | %34
w: can- ta- bo,|(in- ae- ter- num can- ta-|bo)- in ae- ter- num can-|ta- * *|bo,|Mi-|se- ri- cor- *|
 A4 A4 G2 F2 G2 A2 | B2 c2 d4 G6 FE | F4 F4 E8 | z4 B4 e4 e4 | d8 c8 | B4 F4 G8- | G4 c4 B4 A4- | %41
w: * di- as _ _ _|_ _ _ Do- * *|* mi- ni,|mi- se- ri-|cor- di-|as (mi- se-|* ri- cor- di-|
 A4 B4 d6 c2 | B4 z2 B2 c2 A4 ^G2 | c4 B4 A4 z2 B2 | c2 A4 ^G2 A4 A4- | A4 A4 z4 z2 A2 | %46
w: * as)- Do- mi-|ni, in ae- ter- num|can- ta- bo, (in-|ae- ter- num can- ta-|* bo)- in|
 B2 E4 G2 =F4 E4 | A4 z2 B2 c2 A4 G2 | A4 B3 A G2 A2 E2 e2- | e2 dc B4 e4 z2 e2 | c2 d4 B2 c4 d4 | %51
w: ae- ter- num can- ta-|bo, (in- ae- ter- num|can- ta- * * * bo)- can-|* * * ta- bo, in|ae- ter- num can- ta-|
 c4 z4 z2 c2 d2 e2 | A2 A2 d4 G2 c2 d4 | c4 G2 B2 d8 | B4 B4 c4 A4- | A4 A4 A4 d4- | %56
w: bo, in ae- ter-|num can- ta- bo, (in- ae-|ter- num can- ta-|bo)- in ae- ter-|* num can- ta-|
 d2 ^cB c4 d8- | d4 ^c2 B2 !fermata!c8 |] %58
w: |* * * bo.|
V:4
 z16 | z16 | z16 | z16 | A,,8 E,4 E,4 | =F,12 F,4 | E,8 D,4 =F,4 | E,8 z8 | z16 | z16 | %10
w: ||||Mi- se- ri-|cor- di-|as Do- mi-|ni,|||
 A,,8 E,4 E,4 | G,6 F,2 E,2 D,2 C,4 | B,,4 D,4 C,6 C,2 | B,,8 z8 | z16 | B,,8 E,4 E,4 | %16
w: mi- se- ri-|cor- * * * *|di- as Do- mi-|ni,||mi- se- ri-|
 C,2 D,2 E,2 F,2 G,4 G,4 | E,6 F,2 G,4 D,4- | D,2 C,B,, A,,4 E,6 E,2 | A,,4 z2 E,2 A,,4 E,4 | %20
w: cor- * * * * di-|as _ _ Do-|* * * * * mi-|ni, in ae- ter-|
 C,2 D,2 E,4 A,,4 z2 E,2 | =F,2 D,4 ^C,2 D,4 A,,4 | D,8 z4 z2 B,2 | C2 A,4 ^G,2 A,4 E,4 | %24
w: num can- ta- bo, (in-|ae- ter- num can- ta-|bo)- in|ae- ter- num can- ta-|
 A,,4 z4 z4 z2 B,,2 | C,2 A,,4 ^G,,2 A,,4 E,4 | A,,4 z2 E,2 =F,2 D,4 G,2 | C,4 G,4 C,4 z2 G,2 | %28
w: bo, in|ae- ter- num can- ta-|bo, (in- ae- ter- num|can- ta- bo)- in|
 A,2 =F,4 E,2 F,4 D,4 | C,4 z2 G,2 A,2 E,3 E, G,2 | D,8 E,4 E,4 | A,4 A,4 C8- | C4 B,4 ^G,4 A,4- | %33
w: ae- ter- num can- ta-|bo, in ae- ter- num can-|ta- bo, Mi-|se- ri- cor-|* di- as Do-|
 A,4 ^G,4 A,8 | z4 A,,4 E,4 E,4 | G,6 F,2 E,2 D,2 C,4 | B,,4 D,4 C,6 C,2 | B,,8 z8 | z16 | %39
w: * mi- ni,|mi- se- ri-|cor- * * * *|di- as Do- mi-|ni,||
 z4 B,,4 E,4 E,4 | C,2 D,2 E,2 F,2 G,4 D,4 | A,4 G,8 D,4 | E,6 E,2 A,,4 z2 E,2 | %43
w: mi- se- ri-|cor- * * * * di-|as Do- *|* mi- ni, in|
 A,,4 E,4 C,2 D,2 E,4 | A,,4 z2 E,2 =F,2 D,4 ^C,2 | D,4 A,,4 D,8 | z4 z2 B,2 C2 A,4 ^G,2 | %47
w: ae- ter- num can- ta-|bo, in ae- ter- num|can- ta- bo,|(in- ae- ter- num|
 A,4 E,4 A,,4 z4 | z4 z2 B,,2 C,2 A,,4 ^G,,2 | A,,4 E,4 A,,4 z2 E,2 | =F,2 D,4 G,2 C,4 G,4 | %51
w: can- ta- bo)-|in ae- ter- num|can- ta- bo, in|ae- ter- num can- ta-|
 C,4 z2 G,2 A,2 =F,4 E,2 | =F,4 D,4 C,4 z2 G,2 | A,2 E,4 G,2 D,8 | E,8 A,,4 D,4- | D,4 ^C,4 D,8 | %56
w: bo, (in- ae- ter- num|can- ta- bo)- in|ae- ter- num can-|ta- bo, in|_ ae- ter-|
 D,4 A,4 D,8 | !fermata!A,,16 |] %58
w: num can- ta-|bo.|

